X:75
T:the Enterprize
B:Goulding and d'Almaine's Twenty-four Country Dances For the year 1826.
L:1/8
M:6/8
O:England
Z:Richard Robinson 
%%Dancenotes:Half right & left back again lead down the middle and pousette
%%TUNEURL: http://www.leeds.ac.uk/music/Info/RRTuneBk/gettune/00000de9.html
%%ID:00000de9
K:A
e |\
e2c e2c | a2g fed | (cd)e fed | (cB).A (GB) e | \
e2c e2c | a2g fed | cde edB   | BAA A2 ||
c |\
B2e e2e | ^def (Bb).a | gfe e^de | f^dB B2c |\
B2e e2e | ^def Bba | gfe ^def | e3-e2 !D.C.! |]
